X: 40309
T: Tom Barrett's
R: polka
M: 2/4
K: Edorian
|:f>e dc|B/A/B/c/ de|f>e dc|BA/F/ E2:|
|:Bc/B/ AF|AF EF/A/|Bc/B/ AF|1 E2 E>A:|2 E2 E2||

